modules/hawcons-filled/icons/icon-26-hockey-sticks.svg

<?xml version="1.0" encoding="UTF-8" standalone="no"?>
<svg width="32px" height="32px" viewBox="0 0 32 32" version="1.1" xmlns="http://www.w3.org/2000/svg" xmlns:xlink="http://www.w3.org/1999/xlink" xmlns:sketch="http://www.bohemiancoding.com/sketch/ns">
    <!-- Generator: Sketch 3.0.3 (7891) - http://www.bohemiancoding.com/sketch -->
    <title>icon 26 hockey sticks</title>
    <desc>Created with Sketch.</desc>
    <defs></defs>
    <g id="Page-1" stroke="none" stroke-width="1" fill="none" fill-rule="evenodd" sketch:type="MSPage">
        <g id="icon-26-hockey-sticks" sketch:type="MSArtboardGroup" fill="#929292">
            <path d="M19.6168151,12.6762128 L13.4433876,25.1044865 C13.2035453,25.5873343 12.5536144,25.9971093 12.0029699,25.9971094 L5.99703014,25.9971098 C5.45303631,25.9971098 5,25.5498617 5,24.9981533 L5,23.9960664 C5,23.4397702 5.44358641,22.9971098 5.99077797,22.9971098 L11,22.9971098 L16.876506,11.2799555 L19.6168151,12.6762128 L19.6168151,12.6762128 Z M20.0617035,11.7805685 L21.4475951,8.99050746 C21.7201172,8.44186909 21.5026078,7.77630014 20.9558731,7.50094565 L20.1973862,7.11894538 C19.6532935,6.84492148 18.9925622,7.06075495 18.7231009,7.59803332 L17.3248225,10.386058 L20.0617035,11.7805685 L20.0617035,11.7805685 Z M13.7496865,15.4977369 L12.3552393,12.6904518 L15.0956029,11.2941668 L15.4741146,12.0488805 L13.7496865,15.4977369 L13.7496865,15.4977369 Z M16.4906491,21.0158116 L18.521594,25.1044865 C18.7614363,25.5873343 19.4113672,25.9971093 19.9620117,25.9971094 L25.9679514,25.9971098 C26.5119453,25.9971098 26.9649816,25.5498617 26.9649816,24.9981533 L26.9649816,23.9960664 C26.9649816,23.4397702 26.5213952,22.9971098 25.9742036,22.9971098 L20.9649816,22.9971098 L18.2283161,17.5404776 L16.4906491,21.0158116 L16.4906491,21.0158116 L16.4906491,21.0158116 Z M11.9103509,11.7948075 L10.5173864,8.99050746 C10.2448643,8.44186909 10.4623738,7.77630014 11.0091085,7.50094565 L11.7675954,7.11894538 C12.3116881,6.84492148 12.9724194,7.06075495 13.2418806,7.59803332 L14.6472864,10.4002692 L11.9103509,11.7948075 L11.9103509,11.7948075 L11.9103509,11.7948075 Z" id="hockey-sticks" sketch:type="MSShapeGroup"></path>
        </g>
    </g>
</svg>

<svg width="32" height="32" xmlns="http://www.w3.org/2000/svg"><path d="M19.617 12.676l-6.174 12.428c-.24.483-.89.893-1.44.893H5.997c-.544 0-.997-.447-.997-.999v-1.002c0-.556.444-.999.99-.999H11l5.877-11.717 2.74 1.396zm.445-.895l1.386-2.79a1.112 1.112 0 0 0-.492-1.49l-.759-.382a1.096 1.096 0 0 0-1.474.479l-1.398 2.788 2.737 1.395zm-6.312 3.717l-1.395-2.808 2.74-1.396.38.755-1.725 3.449zm2.74 5.518l2.032 4.088c.24.483.89.893 1.44.893h6.006c.544 0 .997-.447.997-.999v-1.002a.992.992 0 0 0-.99-.999h-5.01l-2.737-5.457-1.737 3.476zm-4.58-9.221L10.517 8.99a1.112 1.112 0 0 1 .492-1.49l.759-.382a1.096 1.096 0 0 1 1.474.479l1.405 2.802-2.737 1.395z" fill="#929292" fill-rule="evenodd"/></svg>
